X:1
T: Hat in the Wind
R: reel
C: Rick Gagne
N: 1988 on bouzouki
Q: 1/4=175
N: key of 2nd part ambiguous; G dorian gives the right notes
M: 4/4
K: D
"D"dcBA FA~A2|"A"EA~A2 "A5"EA=c^c|"D"dcBA FA~A2|"A"BAcA "D"d2=c^c|
"D"dcBA FA~A2|"A"EA~A2 "A5"EA=c^c|"D"dcBA FA~A2|"A"BAcA "D"d2 A2 ||
K: Gdor
"Gm"GB~B2 cBAG|"Am"A=Bcd ecA2|"Bb"Bf~f2 gfed|"C"cdef gecA|
"Gm"GB~B2 cBAG|"Am"A=Bcd ecA2|"Bb"Bf~f2 gfed|"C"cdef ge=c^c ||
